icon/lg/cachet.svg

<?xml version="1.0" encoding="UTF-8" standalone="no"?>
<svg viewBox="0 0 512 130" version="1.1" xmlns="http://www.w3.org/2000/svg" xmlns:xlink="http://www.w3.org/1999/xlink" preserveAspectRatio="xMidYMid" height="1em" width="1em">
  <g>
    <path d="M94.3874861,14.642451 L96.2525649,12.7401603 L98.6707712,10.2737061 L95.6871263,8.53330911 C86.1498955,2.97012446 75.3375951,0 64.106704,0 C28.9367701,0 0.447887916,29.0564226 0.447887916,64.873359 C0.447887916,100.690295 28.9367701,129.746718 64.106704,129.746718 C99.276638,129.746718 127.76552,100.690295 127.76552,64.873359 C127.76552,57.0616638 126.409248,49.4361426 123.792094,42.2646819 L122.330074,38.2584927 L119.344341,41.3035627 L117.359108,43.3282493 L116.197206,44.5132424 L116.734997,46.0832763 C118.785067,52.068277 119.844764,58.3952614 119.844764,64.873359 C119.844764,96.3114828 94.8779297,121.775748 64.1062557,121.775748 C33.3348719,121.775748 8.36774781,96.3113218 8.36774781,64.873359 C8.36774781,33.4352352 33.3345817,7.97097023 64.1062557,7.97097023 C73.7009527,7.97097023 82.9381801,10.4465363 91.1388479,15.0989224 L91.7563085,15.4492189 L92.4662137,15.4492189 L92.466662,15.4492189 L93.5964999,15.4492189 L94.3874861,14.642451 L94.3874861,14.642451 Z M90.5458379,10.8759518 L92.466662,12.7592014 L92.466662,10.0691839 L92.4662137,10.0691839 L92.4662137,12.7592014 L93.7935794,10.4194804 C84.7895627,5.31134 74.6387539,2.5909352 64.1062557,2.5909352 C30.3392551,2.5909352 2.98771278,30.4874208 2.98771278,64.873359 C2.98771278,99.2591424 30.3395519,127.155783 64.1062557,127.155783 C97.8732562,127.155783 125.224799,99.2592972 125.224799,64.873359 C125.224799,57.8003702 124.066456,50.8844143 121.824723,44.3398691 L121.200612,47.0948961 L123.185845,45.0702096 L118.738092,44.1090905 C121.140219,50.6913391 122.385485,57.6927383 122.385485,64.873359 C122.385485,97.7424785 96.2813141,124.366683 64.106704,124.366683 C31.932094,124.366683 5.82792294,97.7424785 5.82792294,64.873359 C5.82792294,32.0042396 31.932094,5.38003503 64.106704,5.38003503 C74.3774205,5.38003503 84.2555023,8.09353087 92.9763553,13.1805123 L94.3317408,10.8569107 L92.4109167,8.97366107 L90.5458379,10.8759518 L90.5458379,10.8759518 Z" fill="#7ED321"/>
    <path d="M49.4999089,80.12262 L49.863958,79.7509492 L122.08241,6.09378634 L124.873751,3.24685114 L130.456434,8.94072154 L127.665093,11.7876567 L55.446641,85.4448196 L55.0825919,85.8164904 L49.4999089,91.5103608 L46.7085674,88.6634256 L26.5571979,68.1107951 L23.7658564,65.2638599 L29.3485394,59.5699895 L32.1398809,62.4169247 L49.4999089,80.12262 L49.4999089,80.12262 Z" fill="#7ED321"/>
    <path d="M149.744308,64.1120841 C149.744308,59.3296813 150.584939,54.5661086 152.2662,49.821366 C153.947461,45.0766235 156.39448,40.8358109 159.607706,37.0998249 C162.820932,33.3638389 166.781086,30.3187391 171.488616,27.9649737 C176.196147,25.6112084 181.53897,24.4343257 187.516637,24.4343257 C194.615145,24.4343257 200.667685,26.0407145 205.674256,29.2539405 C210.680827,32.4671664 214.416813,36.6514886 216.882662,41.8073555 L210.605954,45.6182137 C209.335818,43.0030683 207.803853,40.7985989 206.010508,39.0052539 C204.217163,37.2119089 202.274522,35.7548161 200.182137,34.6339755 C198.089751,33.5131349 195.922942,32.7097163 193.681261,32.2241681 C191.43958,31.73862 189.23511,31.4956217 187.068301,31.4956217 C182.285898,31.4956217 178.064364,32.4671664 174.402802,34.4098074 C170.74124,36.3524483 167.658928,38.8931699 165.155867,42.0315236 C162.652806,45.1698774 160.765758,48.7005254 159.495622,52.6234676 C158.225485,56.5464098 157.590193,60.525394 157.590193,64.5604203 C157.590193,68.9689107 158.355951,73.1908932 159.887916,77.2259194 C161.419881,81.2609457 163.511818,84.8288056 166.164623,87.9299475 C168.817429,91.0310893 171.955783,93.4969387 175.579685,95.3274956 C179.203587,97.1580525 183.145359,98.0735552 187.404553,98.0735552 C189.646235,98.0735552 191.943958,97.793345 194.297723,97.2329247 C196.651489,96.6725044 198.930382,95.7758319 201.134851,94.5429072 C203.33932,93.3099825 205.375215,91.7780175 207.243433,89.9474606 C209.11165,88.1169037 210.680827,85.8936042 211.950963,83.2784588 L218.451839,86.6409807 C217.181702,89.6300385 215.388357,92.264014 213.071804,94.5429072 C210.75525,96.8218004 208.177317,98.7460595 205.338004,100.315236 C202.49869,101.884413 199.490802,103.080126 196.315236,103.901926 C193.139671,104.723727 190.019699,105.134851 186.956217,105.134851 C181.50131,105.134851 176.495187,103.939138 171.936953,101.548161 C167.378718,99.1571839 163.455776,96.0372119 160.168126,92.1891419 C156.880476,88.3410718 154.320925,83.9697933 152.490368,79.0753065 C150.659811,74.1808196 149.744308,69.1930788 149.744308,64.1120841 L149.744308,64.1120841 Z M245.688266,105.583187 C242.699208,105.583187 239.971979,105.116021 237.50613,104.182137 C235.04028,103.248252 232.929513,101.959285 231.17338,100.315236 C229.417247,98.6711874 228.053856,96.7657583 227.082312,94.5989492 C226.110767,92.4321401 225.625219,90.1527986 225.625219,87.7618214 C225.625219,85.0718039 226.222851,82.6247846 227.418564,80.4203152 C228.614277,78.2158459 230.295538,76.3292469 232.462347,74.7600701 C234.629156,73.1908932 237.225919,71.9767986 240.252189,71.117338 C243.278459,70.2578774 246.622151,69.8283713 250.283713,69.8283713 C253.197898,69.8283713 256.186956,70.0897513 259.250438,70.6129597 C262.313919,71.1361681 265.041597,71.8830963 267.432574,72.854641 L267.432574,67.58669 C267.432574,62.4308231 265.956651,58.3397548 263.005254,55.3134851 C260.053856,52.2872154 256.074872,50.7740806 251.068301,50.7740806 C247.929947,50.7740806 244.810424,51.3717128 241.709282,52.5674256 C238.60814,53.7631384 235.451405,55.4816112 232.238179,57.7232925 L229.548161,52.6795096 C233.359019,50.1387881 237.057793,48.233359 240.644483,46.9632224 C244.231173,45.6930858 247.967159,45.0577933 251.85289,45.0577933 C258.951398,45.0577933 264.593261,47.1125184 268.777583,51.2224168 C272.961905,55.3323152 275.054291,61.0109422 275.054291,68.2591944 L275.054291,94.5989492 C275.054291,96.6913345 275.950963,97.737303 277.744308,97.737303 L277.744308,104.462347 C277.146676,104.537219 276.586256,104.593261 276.063047,104.630473 C275.539839,104.667685 275.091503,104.686515 274.718039,104.686515 C273.223734,104.686515 271.859895,104.238179 270.62697,103.341506 C269.394046,102.444834 268.702711,101.099825 268.553415,99.3064799 L268.329247,94.7110333 C265.788525,98.1484273 262.444834,100.819615 258.297723,102.725044 C254.150613,104.630473 249.947461,105.583187 245.688266,105.583187 L245.688266,105.583187 Z M247.593695,99.7548161 C250.956217,99.7548161 254.299909,99.0262697 257.625219,97.5691769 C260.950529,96.1120841 263.584504,94.1134011 265.527145,91.5726795 C266.050354,90.9001751 266.49869,90.1716287 266.872154,89.3870403 C267.245618,88.6024518 267.432574,87.8739054 267.432574,87.2014011 L267.432574,77.6742557 C264.891853,76.702711 262.239496,75.9557828 259.474606,75.4325744 C256.709716,74.909366 254.019699,74.647986 251.404553,74.647986 C245.949646,74.647986 241.522326,75.7499965 238.122592,77.9544658 C234.722858,80.1589352 233.022767,83.2035867 233.022767,87.089317 C233.022767,88.6584939 233.321807,90.1904588 233.91944,91.6847636 C234.517072,93.1790683 235.432574,94.5240771 236.665499,95.7197898 C237.898424,96.9155026 239.411559,97.8865989 241.204904,98.6339755 C242.998249,99.381352 245.127846,99.7548161 247.593695,99.7548161 L247.593695,99.7548161 Z M287.831874,75.0963222 C287.831874,70.9864238 288.54159,67.1011419 289.961471,63.4395797 C291.381352,59.7780175 293.380035,56.5836217 295.957968,53.8563923 C298.535902,51.1291629 301.618214,48.9807356 305.204904,47.4115587 C308.791594,45.8423818 312.751748,45.0577933 317.085814,45.0577933 C322.615145,45.0577933 327.43476,46.3095482 331.544658,48.8126095 C335.654557,51.3156708 338.75525,54.6970228 340.847636,58.9562172 L333.450088,61.3099825 C331.806039,58.3209247 329.527145,55.9859895 326.61296,54.3047285 C323.698774,52.6234676 320.448336,51.7828371 316.861646,51.7828371 C313.872588,51.7828371 311.089317,52.3804694 308.511384,53.5761821 C305.93345,54.7718949 303.691769,56.3971138 301.78634,58.4518389 C299.880911,60.5065639 298.386606,62.9540315 297.302977,65.793345 C296.219349,68.6326585 295.677758,71.7338004 295.677758,75.0963222 C295.677758,78.383972 296.238179,81.4851138 297.359019,84.3992995 C298.47986,87.3134851 300.011825,89.8353765 301.954466,91.9649737 C303.897107,94.0945709 306.157618,95.7758319 308.735552,97.0087566 C311.313485,98.2416813 314.059545,98.8581436 316.97373,98.8581436 C318.841947,98.8581436 320.691335,98.5967636 322.521891,98.0735552 C324.352448,97.5503468 326.052539,96.8218004 327.621716,95.8879159 C329.190893,94.9540315 330.535902,93.8892329 331.656743,92.6935201 C332.777583,91.4978074 333.562172,90.2276708 334.010508,88.882662 L341.408056,91.1243433 C340.586256,93.2167285 339.390543,95.1405394 337.821366,96.8966725 C336.252189,98.6528056 334.402802,100.184322 332.273205,101.492119 C330.143608,102.799916 327.789842,103.808673 325.211909,104.518389 C322.633975,105.228105 319.962788,105.583187 317.197898,105.583187 C312.938704,105.583187 309.015762,104.779769 305.429072,103.17338 C301.842382,101.566991 298.74124,99.3625219 296.126095,96.5604203 C293.510949,93.7583187 291.474606,90.526711 290.017513,86.8651489 C288.56042,83.2035867 287.831874,79.2806445 287.831874,75.0963222 L287.831874,75.0963222 Z M402.381786,104.462347 L394.76007,104.462347 L394.76007,71.8458844 C394.76007,65.1957128 393.620399,60.2263538 391.341506,56.938704 C389.062613,53.6510543 385.718473,52.0070053 381.309982,52.0070053 C379.143173,52.0070053 376.994746,52.4365114 374.865149,53.295972 C372.735552,54.1554326 370.736869,55.3323152 368.868651,56.82662 C367.000434,58.3209247 365.375215,60.0770578 363.992995,62.0945709 C362.610774,64.1120841 361.583187,66.3165534 360.910683,68.7075306 L360.910683,104.462347 L353.288967,104.462347 L353.288967,22.6409807 L360.910683,22.6409807 L360.910683,59.2924694 C363.30166,54.883979 366.552098,51.409373 370.661996,48.8686515 C374.771895,46.3279299 379.180385,45.0577933 383.887916,45.0577933 C387.250438,45.0577933 390.108581,45.6742557 392.462347,46.9071804 C394.816112,48.1401051 396.721541,49.8585779 398.178634,52.0630473 C399.635727,54.2675166 400.700525,56.9198739 401.37303,60.0210158 C402.045534,63.1221576 402.381786,66.5407215 402.381786,70.2767075 L402.381786,104.462347 L402.381786,104.462347 Z M443.740806,105.583187 C439.481611,105.583187 435.558669,104.779769 431.971979,103.17338 C428.385289,101.566991 425.284147,99.3625219 422.669002,96.5604203 C420.053856,93.7583187 418.017513,90.526711 416.56042,86.8651489 C415.103327,83.2035867 414.374781,79.2806445 414.374781,75.0963222 C414.374781,70.9864238 415.103327,67.1195236 416.56042,63.4956217 C418.017513,59.8717198 420.053856,56.6957058 422.669002,53.9684764 C425.284147,51.2412469 428.366459,49.0739895 431.915937,47.4676007 C435.465415,45.8612119 439.369527,45.0577933 443.628722,45.0577933 C447.887916,45.0577933 451.792028,45.8612119 455.341506,47.4676007 C458.890984,49.0739895 461.935636,51.2596287 464.476357,54.0245184 C467.017079,56.7894081 468.996932,59.9649737 470.416813,63.5516637 C471.836694,67.1383538 472.54641,70.9492119 472.54641,74.9842382 C472.54641,75.5818704 472.52758,76.179951 472.490368,76.7775832 C472.453156,77.3752154 472.397114,77.7863398 472.322242,78.0105079 L422.444834,78.0105079 C422.669002,81.1488616 423.397548,84.0442172 424.630473,86.6970228 C425.863398,89.3498284 427.432574,91.6475517 429.338004,93.5901926 C431.243433,95.5328336 433.447902,97.0459685 435.950963,98.1295972 C438.454025,99.2132259 441.12566,99.7548161 443.964974,99.7548161 C445.907615,99.7548161 447.813044,99.4934361 449.681261,98.9702277 C451.549478,98.4470193 453.267951,97.737303 454.837128,96.8406305 C456.406305,95.943958 457.807356,94.8419475 459.04028,93.5341506 C460.273205,92.2263538 461.225919,90.7880911 461.898424,89.2189142 L468.511384,91.0122592 C467.614711,93.1790683 466.344574,95.1405394 464.700525,96.8966725 C463.056476,98.6528056 461.151047,100.184322 458.984238,101.492119 C456.817429,102.799916 454.426004,103.808673 451.810858,104.518389 C449.195713,105.228105 446.505695,105.583187 443.740806,105.583187 L443.740806,105.583187 Z M465.260946,72.1821366 C465.036778,69.0437828 464.308231,66.1856392 463.075306,63.6077058 C461.842382,61.0297723 460.273205,58.8069212 458.367776,56.938704 C456.462347,55.0704869 454.239496,53.613394 451.698774,52.5674256 C449.158053,51.5214571 446.468035,50.9982487 443.628722,50.9982487 C440.789408,50.9982487 438.099391,51.5214571 435.558669,52.5674256 C433.017947,53.613394 430.795096,55.0704869 428.889667,56.938704 C426.984238,58.8069212 425.452273,61.0486025 424.294221,63.6637478 C423.136168,66.2788932 422.444834,69.118655 422.220665,72.1821366 L465.260946,72.1821366 L465.260946,72.1821366 Z M511.663748,101.660245 C511.215412,101.884413 510.561737,102.183454 509.702277,102.556918 C508.842816,102.930382 507.85289,103.304294 506.732049,103.677758 C505.611208,104.051222 504.341072,104.387475 502.921191,104.686515 C501.50131,104.985555 500.007005,105.134851 498.437828,105.134851 C496.793779,105.134851 495.224602,104.910683 493.730298,104.462347 C492.235993,104.014011 490.928196,103.322676 489.807356,102.388792 C488.686515,101.454907 487.789842,100.278025 487.117338,98.8581436 C486.444834,97.4382627 486.108581,95.794662 486.108581,93.9264448 L486.108581,52.1190893 L478.038529,52.1190893 L478.038529,46.0665499 L486.108581,46.0665499 L486.108581,26.3397548 L493.730298,26.3397548 L493.730298,46.0665499 L507.180385,46.0665499 L507.180385,52.1190893 L493.730298,52.1190893 L493.730298,91.7968476 C493.879594,93.9636567 494.62697,95.5516637 495.971979,96.5604203 C497.316988,97.5691769 498.923377,98.0735552 500.791594,98.0735552 C502.958403,98.0735552 504.863832,97.7184729 506.507881,97.0087566 C508.15193,96.2990403 509.197898,95.794662 509.646235,95.4956217 L511.663748,101.660245 L511.663748,101.660245 Z" fill="#5E5E5E"/>
  </g>
</svg>

<svg width="512" height="130" xmlns="http://www.w3.org/2000/svg" preserveAspectRatio="xMidYMid"><path d="m94.387 14.642 1.866-1.902 2.418-2.466-2.984-1.74A62.46 62.46 0 0 0 64.107 0C28.937 0 .447 29.056.447 64.873c0 35.817 28.49 64.874 63.66 64.874s63.659-29.057 63.659-64.874a65.835 65.835 0 0 0-3.974-22.608l-1.462-4.007-2.986 3.046-1.985 2.024-1.162 1.185.538 1.57a57.886 57.886 0 0 1 3.11 18.79c0 31.438-24.967 56.903-55.739 56.903-30.771 0-55.738-25.465-55.738-56.903S33.335 7.971 64.106 7.971a54.58 54.58 0 0 1 27.033 7.128l.617.35H93.596l.791-.807Zm-3.841-3.766 1.92 1.883v-2.69 2.69l1.328-2.34a59.96 59.96 0 0 0-29.688-7.828C30.34 2.59 2.988 30.487 2.988 64.873c0 34.386 27.352 62.283 61.118 62.283 33.767 0 61.119-27.897 61.119-62.283a63.265 63.265 0 0 0-3.4-20.533l-.624 2.755 1.985-2.025-4.448-.96a60.456 60.456 0 0 1 3.647 20.763c0 32.87-26.104 59.494-58.278 59.494-32.175 0-58.28-26.625-58.28-59.494S31.933 5.38 64.108 5.38a57.08 57.08 0 0 1 28.87 7.8l1.355-2.323-1.921-1.883-1.865 1.902Z" fill="#7ED321"/><path d="m49.5 80.123.364-.372 72.218-73.657 2.792-2.847 5.582 5.694-2.79 2.847-72.22 73.657-.363.371L49.5 91.51l-2.791-2.847-20.152-20.552-2.791-2.847 5.583-5.694 2.79 2.847L49.5 80.123Z" fill="#7ED321"/><path d="M149.744 64.112c0-4.782.84-9.546 2.522-14.29 1.681-4.745 4.128-8.986 7.342-12.722 3.213-3.736 7.173-6.781 11.88-9.135 4.708-2.354 10.051-3.53 16.029-3.53 7.098 0 13.15 1.606 18.157 4.819s8.743 7.397 11.209 12.553l-6.277 3.811c-1.27-2.615-2.802-4.82-4.595-6.613-1.794-1.793-3.736-3.25-5.829-4.371a24.862 24.862 0 0 0-6.5-2.41 31.181 31.181 0 0 0-6.614-.728c-4.782 0-9.004.971-12.665 2.914-3.662 1.942-6.744 4.483-9.247 7.622-2.503 3.138-4.39 6.669-5.66 10.591-1.27 3.923-1.906 7.902-1.906 11.937 0 4.409.766 8.63 2.298 12.666 1.532 4.035 3.624 7.603 6.277 10.704a30.186 30.186 0 0 0 9.415 7.397c3.624 1.831 7.565 2.747 11.825 2.747 2.241 0 4.539-.28 6.893-.841a26.568 26.568 0 0 0 6.837-2.69 28.78 28.78 0 0 0 6.108-4.596c1.869-1.83 3.438-4.053 4.708-6.669l6.5 3.363a24.324 24.324 0 0 1-5.38 7.902 35.385 35.385 0 0 1-7.733 5.772 38.536 38.536 0 0 1-9.023 3.587c-3.175.822-6.295 1.233-9.359 1.233-5.455 0-10.46-1.196-15.019-3.587-4.558-2.39-8.481-5.51-11.769-9.359-3.288-3.848-5.847-8.22-7.678-13.114-1.83-4.894-2.746-9.882-2.746-14.963Zm95.944 41.471c-2.989 0-5.716-.467-8.182-1.4-2.466-.935-4.576-2.224-6.333-3.868a17.657 17.657 0 0 1-4.09-5.716 16.527 16.527 0 0 1-1.458-6.837c0-2.69.598-5.137 1.794-7.342 1.195-2.204 2.877-4.09 5.043-5.66 2.167-1.57 4.764-2.783 7.79-3.643 3.026-.86 6.37-1.289 10.032-1.289 2.914 0 5.903.262 8.966.785 3.064.523 5.792 1.27 8.183 2.242v-5.268c0-5.156-1.476-9.247-4.428-12.274-2.951-3.026-6.93-4.539-11.937-4.539-3.138 0-6.258.598-9.359 1.793-3.1 1.196-6.258 2.915-9.47 5.156l-2.69-5.043c3.81-2.541 7.509-4.447 11.095-5.717 3.587-1.27 7.323-1.905 11.209-1.905 7.098 0 12.74 2.055 16.925 6.164 4.184 4.11 6.276 9.789 6.276 17.037V94.6c0 2.092.897 3.138 2.69 3.138v6.725c-.597.075-1.158.131-1.681.168-.523.038-.971.057-1.345.057-1.494 0-2.858-.449-4.091-1.345-1.233-.897-1.924-2.242-2.074-4.036l-.224-4.595c-2.54 3.437-5.884 6.109-10.031 8.014-4.147 1.905-8.35 2.858-12.61 2.858Zm1.906-5.828c3.362 0 6.706-.729 10.031-2.186 3.326-1.457 5.96-3.456 7.902-5.996a11.82 11.82 0 0 0 1.345-2.186c.374-.785.56-1.513.56-2.186v-9.527a46.37 46.37 0 0 0-7.957-2.241c-2.765-.524-5.455-.785-8.07-.785-5.455 0-9.883 1.102-13.282 3.306-3.4 2.205-5.1 5.25-5.1 9.135 0 1.57.299 3.101.896 4.596.598 1.494 1.514 2.84 2.746 4.035 1.233 1.196 2.747 2.167 4.54 2.914 1.793.747 3.923 1.12 6.389 1.12Zm40.238-24.659c0-4.11.71-7.995 2.13-11.656 1.42-3.662 3.418-6.856 5.996-9.584 2.578-2.727 5.66-4.875 9.247-6.444 3.587-1.57 7.547-2.354 11.88-2.354 5.53 0 10.35 1.252 14.46 3.755 4.11 2.503 7.21 5.884 9.303 10.143l-7.398 2.354c-1.644-2.99-3.923-5.324-6.837-7.005-2.914-1.682-6.165-2.522-9.751-2.522-2.99 0-5.773.597-8.35 1.793a21.3 21.3 0 0 0-6.726 4.876c-1.905 2.055-3.4 4.502-4.483 7.341-1.084 2.84-1.625 5.94-1.625 9.303 0 3.288.56 6.39 1.681 9.303 1.12 2.914 2.653 5.436 4.595 7.566a21.876 21.876 0 0 0 6.782 5.044c2.577 1.233 5.324 1.85 8.238 1.85 1.868 0 3.717-.262 5.548-.785a21.447 21.447 0 0 0 5.1-2.186c1.569-.934 2.914-1.999 4.035-3.194 1.12-1.196 1.905-2.466 2.354-3.811l7.397 2.241c-.822 2.093-2.017 4.017-3.587 5.773-1.569 1.756-3.418 3.287-5.548 4.595-2.13 1.308-4.483 2.317-7.061 3.026a30.054 30.054 0 0 1-8.014 1.065c-4.26 0-8.182-.803-11.769-2.41-3.587-1.606-6.688-3.81-9.303-6.613-2.615-2.802-4.651-6.033-6.108-9.695-1.458-3.661-2.186-7.584-2.186-11.769Zm114.55 29.366h-7.622V71.846c0-6.65-1.14-11.62-3.418-14.907-2.28-3.288-5.624-4.932-10.032-4.932-2.167 0-4.315.43-6.445 1.289a23.873 23.873 0 0 0-5.996 3.53 24.252 24.252 0 0 0-4.876 5.269 22.3 22.3 0 0 0-3.082 6.613v35.754h-7.622V22.641h7.622v36.651c2.39-4.408 5.641-7.883 9.751-10.423 4.11-2.541 8.518-3.811 13.226-3.811 3.362 0 6.22.616 8.574 1.85a15.19 15.19 0 0 1 5.717 5.155c1.457 2.205 2.522 4.857 3.194 7.958.673 3.101 1.009 6.52 1.009 10.256v34.185Zm41.359 1.121c-4.26 0-8.182-.803-11.769-2.41-3.587-1.606-6.688-3.81-9.303-6.613-2.615-2.802-4.651-6.033-6.109-9.695-1.457-3.661-2.185-7.584-2.185-11.769 0-4.11.728-7.976 2.185-11.6 1.458-3.624 3.494-6.8 6.109-9.528 2.615-2.727 5.697-4.894 9.247-6.5 3.55-1.607 7.454-2.41 11.713-2.41 4.259 0 8.163.803 11.713 2.41 3.549 1.606 6.594 3.792 9.134 6.557 2.541 2.764 4.52 5.94 5.94 9.527 1.42 3.586 2.13 7.397 2.13 11.432 0 .598-.018 1.196-.056 1.794-.037.597-.093 1.008-.168 1.233h-49.877c.224 3.138.953 6.033 2.185 8.686 1.233 2.653 2.803 4.95 4.708 6.893a20.69 20.69 0 0 0 6.613 4.54c2.503 1.083 5.175 1.625 8.014 1.625 1.943 0 3.848-.262 5.716-.785a22.66 22.66 0 0 0 5.156-2.13 18.052 18.052 0 0 0 4.203-3.306c1.233-1.308 2.186-2.746 2.858-4.315l6.613 1.793a19.42 19.42 0 0 1-3.81 5.885c-1.645 1.756-3.55 3.287-5.717 4.595-2.167 1.308-4.558 2.317-7.173 3.026a30.675 30.675 0 0 1-8.07 1.065Zm21.52-33.4c-.224-3.14-.953-5.997-2.186-8.575-1.233-2.578-2.802-4.801-4.707-6.67-1.906-1.868-4.129-3.325-6.67-4.37-2.54-1.047-5.23-1.57-8.07-1.57-2.839 0-5.529.523-8.07 1.57-2.54 1.045-4.763 2.502-6.668 4.37-1.906 1.869-3.438 4.11-4.596 6.726-1.158 2.615-1.85 5.455-2.073 8.518h43.04Zm46.403 29.477c-.449.224-1.102.523-1.962.897a36.3 36.3 0 0 1-2.97 1.12c-1.12.374-2.39.71-3.81 1.01-1.42.299-2.915.448-4.484.448-1.644 0-3.213-.224-4.708-.673-1.494-.448-2.802-1.14-3.923-2.073-1.12-.934-2.017-2.111-2.69-3.53-.672-1.42-1.008-3.064-1.008-4.933V52.12h-8.07v-6.052h8.07V26.34h7.621v19.727h13.45v6.052h-13.45v39.678c.15 2.167.897 3.755 2.242 4.763 1.345 1.01 2.951 1.514 4.82 1.514 2.166 0 4.072-.356 5.716-1.065 1.644-.71 2.69-1.214 3.138-1.513l2.018 6.164Z" fill="#5E5E5E"/></svg>
